img/insurance__vulnerabilities.svg

<svg width="25" height="26" viewBox="0 0 25 26" fill="none" xmlns="http://www.w3.org/2000/svg">
<path d="M5.61815 16.3387L6.91496 17.6874L9.12963 15.3617C7.00162 12.7237 6.54887 9.2388 7.53805 6.28801L10.4849 9.35274C10.4598 12.4341 12.8721 15.1271 16.0195 15.1271C17.8672 15.1271 19.5061 14.1804 20.5119 12.7292L17.1661 9.2495L14.846 11.6626L6.21743 2.6889V4.72362H4.70423L4.70428 0.00244141H9.24382V1.57612L7.28741 1.57617L14.846 9.43709L17.1661 7.02394L21.2456 11.2665C21.9146 9.2773 21.5075 6.93806 19.9333 5.30076C17.9163 3.20319 14.7481 3.06879 12.5842 4.85728L10.1377 2.31288C13.6619 -0.87318 19.0092 -0.728187 22.3697 2.76674C24.0659 4.53073 24.9999 6.87616 24.9999 9.37089C24.9999 14.5209 20.9714 18.7107 16.0195 18.7108C13.8604 18.7108 11.818 17.9234 10.1946 16.4799L7.98489 18.8002L9.28695 20.1544L3.66895 25.9973L0 22.1816L5.61815 16.3387Z" fill="#304BAB"/>
<path d="M12.8682 21.2773H24.9737V22.8511H12.8682V21.2773Z" fill="#304BAB"/>
<path d="M8.32861 24.4248H17.4078V25.9985H8.32861V24.4248Z" fill="#304BAB"/>
</svg>

<svg width="25" height="26" viewBox="0 0 25 26" fill="none" xmlns="http://www.w3.org/2000/svg"><path d="M5.618 16.339l1.297 1.348 2.215-2.325c-2.128-2.638-2.581-6.123-1.592-9.074l2.947 3.065c-.025 3.081 2.387 5.774 5.535 5.774 1.847 0 3.486-.947 4.492-2.398l-3.346-3.48-2.32 2.414-8.629-8.974v2.035H4.704V.002h4.54v1.574H7.287l7.559 7.861 2.32-2.413 4.08 4.243c.669-1.99.262-4.329-1.313-5.966-2.017-2.098-5.185-2.232-7.349-.444l-2.446-2.544c3.524-3.186 8.871-3.041 12.232.454C24.066 4.53 25 6.877 25 9.37c0 5.15-4.029 9.34-8.98 9.34a8.712 8.712 0 01-5.825-2.231l-2.21 2.32 1.302 1.354-5.618 5.843L0 22.182l5.618-5.843z" fill="#304BAB"/><path d="M12.868 21.277h12.106v1.574H12.868v-1.574zm-4.539 3.148h9.079v1.573h-9.08v-1.573z" fill="#304BAB"/></svg>
